x-pack/solutions/observability/plugins/apm/public/components/shared/span_icon/icons/graphql.svg

<svg width="16" height="16" viewBox="0 0 16 16" fill="none" xmlns="http://www.w3.org/2000/svg">
<path fill-rule="evenodd" clip-rule="evenodd" d="M7.61104 2.90528C7.73443 2.94089 7.8649 2.95997 7.99988 2.95997C8.13532 2.95997 8.26621 2.94076 8.38997 2.90492L12.6057 10.2065C12.5113 10.2965 12.4282 10.4013 12.36 10.5199C12.2921 10.6379 12.2434 10.7618 12.2128 10.8879H3.78721C3.75663 10.7619 3.70787 10.638 3.63997 10.5199C3.57146 10.402 3.48848 10.2977 3.3946 10.2082L7.61104 2.90528ZM6.99579 2.53459C7.00877 2.54802 7.02203 2.5612 7.03554 2.5741L2.81896 9.87725C2.80073 9.87196 2.7824 9.86703 2.76397 9.86248V6.13697C3.11928 6.04864 3.43942 5.82202 3.63595 5.48015C3.83222 5.13872 3.86861 4.74921 3.76807 4.39817L6.99579 2.53459ZM9.33817 1.96312C9.37572 1.83669 9.39588 1.70272 9.39588 1.56397C9.39588 0.791969 8.77188 0.167969 7.99988 0.167969C7.22788 0.167969 6.60388 0.791969 6.60388 1.56397C6.60388 1.70201 6.62383 1.83531 6.66101 1.96117L3.43929 3.82129C3.34892 3.72586 3.24348 3.64157 3.12395 3.57215C2.45594 3.18814 1.59994 3.41614 1.21594 4.08415C0.831944 4.75215 1.05994 5.60815 1.72794 5.99215C1.84721 6.06071 1.97248 6.10977 2.09998 6.14029V9.8607C1.97394 9.89128 1.85008 9.94004 1.73197 10.0079C1.06397 10.3959 0.835972 11.2479 1.21997 11.9159C1.60397 12.5839 2.45597 12.8119 3.12797 12.4279C3.24622 12.3593 3.35068 12.276 3.44039 12.1819L6.66038 14.041C6.62361 14.1662 6.60388 14.2988 6.60388 14.436C6.60388 15.208 7.22788 15.832 7.99988 15.832C8.77188 15.832 9.39588 15.204 9.39588 14.436C9.39588 14.2823 9.37113 14.1344 9.32538 13.9961L12.5268 12.1477C12.6235 12.2564 12.739 12.3515 12.872 12.4279C13.54 12.8119 14.396 12.5839 14.78 11.9159C15.168 11.2479 14.94 10.3959 14.268 10.0079C14.15 9.94009 14.0261 9.89135 13.9 9.86076V6.14029C14.0275 6.10977 14.1527 6.06072 14.272 5.99215C14.94 5.60415 15.168 4.75215 14.784 4.08415C14.396 3.41614 13.544 3.18814 12.876 3.57215C12.7558 3.64195 12.6499 3.72677 12.5592 3.82283L9.33817 1.96312ZM8.96516 2.57321C8.97786 2.56106 8.99033 2.54867 9.00256 2.53605L12.2313 4.40022C12.1315 4.75073 12.1681 5.13938 12.364 5.48015C12.5605 5.82201 12.8807 6.04863 13.236 6.13696V9.86213C13.2178 9.86658 13.1998 9.87139 13.1819 9.87656L8.96516 2.57321ZM12.24 11.6436L9.03231 13.4956C8.77714 13.2156 8.40933 13.04 7.99988 13.04C7.60455 13.04 7.24802 13.2037 6.99423 13.467L3.77093 11.606C3.77612 11.5881 3.78095 11.5701 3.78542 11.5519H12.2142C12.2217 11.5828 12.2304 11.6133 12.24 11.6436Z" fill="#E535AB"/>
</svg>

<svg xmlns="http://www.w3.org/2000/svg" width="16" height="16" fill="none"><path fill="#E535AB" fill-rule="evenodd" d="M7.611 2.905a1.4 1.4 0 0 0 .779 0l4.216 7.302a1.4 1.4 0 0 0-.393.68H3.787a1.4 1.4 0 0 0-.392-.679zm-.615-.37.04.04-4.217 7.302-.055-.015V6.137a1.394 1.394 0 0 0 1.004-1.739zm2.342-.572A1.395 1.395 0 0 0 8 .168 1.395 1.395 0 0 0 6.66 1.961l-3.222 1.86a1.398 1.398 0 1 0-1.711 2.17 1.4 1.4 0 0 0 .372.15v3.72q-.19.045-.368.147a1.397 1.397 0 1 0 1.708 2.174l3.22 1.859A1.395 1.395 0 0 0 8 15.832a1.397 1.397 0 0 0 1.325-1.836l3.202-1.848a1.398 1.398 0 0 0 2.253-.232 1.392 1.392 0 0 0-.88-2.055V6.14a1.4 1.4 0 0 0 .884-2.056 1.4 1.4 0 0 0-2.225-.262zm-.373.61.038-.037L12.23 4.4a1.394 1.394 0 0 0 1.005 1.737v3.725l-.054.015zm3.275 9.07-3.208 1.853A1.4 1.4 0 0 0 8 13.04c-.395 0-.752.164-1.006.427l-3.223-1.861.014-.054h8.43q.01.045.025.092" clip-rule="evenodd"/></svg>
